X:1
T:Title
%%score { ( 1 3 ) | ( 2 4 ) }
L:1/8
M:3/4
K:C
V:1 treble nm="Grand Piano"
V:3 treble 
V:2 bass 
V:4 bass 
V:1
 z2 z[Q:1/4=96] [EG] [FA][FB] | [Ec]3 [GB] [Bd][Ac] | [FA]3 [Ac] [GB]A | G3 F AG |[M:9/16] E4- E/ | %5
[M:3/8] [EG][FA][FB] |[M:3/4] [Ec]3 [G,CE] [A,FA][A,EG] | [A,D^F]3 [A,DF] [Fd][DAc] | %8
 [DGB]3 [EAc] [DGB][C^FA] |[M:9/16] [B,G]4- [B,G]/ |[M:3/8] G^FG |[M:3/4] d4 z2 | [Ec]4 z2 | %13
 d4 z2 |[M:7/16] [Ec]/-[Ec]/-[Ec]/-[Ec]-<[Ec] |[M:3/8] [CEG][CFA][FB] | %16
[M:3/4] [Ec]3 [GB] [Ad][Ac] | [FA]3 [Ac] [GB]A | z2 z2 B2 |[M:9/16] [Ec]4- [Ec]/ |] %20
V:2
 z2 z [C,C] [F,C][D,G,] | [C,G,]3 [E,C] [F,C][F,C] | [F,C]3 [F,C] [F,C][K:treble][F,CF] | %3
 [G,CE]3 [G,B,D] [G,B,F][G,CE] |[M:9/16][K:bass] [C,G,C]4- [C,G,C]/ |[M:3/8] [C,C][F,C][D,G,] | %6
[M:3/4] [C,G,]3 C, A,,G,, | D,3 D, [D,A,]D, | G,3 C, D,D, |[M:9/16] G,4- G,/ | %10
[M:3/8][K:treble] E_E=E |[M:3/4] F4 z2[K:bass] | [C,C]C, C,E[K:treble] _E=E | F4 z2 | %14
[M:7/16][K:bass] [C,C]C,C,3/2 |[M:3/8] C,F,[D,G,] |[M:3/4] [C,G,]3 [E,C] [F,C][F,C] | %17
 [F,C]3 [F,C] [F,C][F,CF] | [G,CE][G,E] [G,E]2 [G,,G,]2 |[M:9/16] [C,G,]4- [C,G,]/ |] %20
V:3
 x6 | x6 | x6 | x6 |[M:9/16] x9/2 |[M:3/8] x3 |[M:3/4] x6 | x6 | x6 |[M:9/16] x9/2 |[M:3/8] x3 | %11
[M:3/4] z B, B,G AG | z G, G,G ^FG | z B, B,G AG |[M:7/16] z G,G,3/2 |[M:3/8] x3 |[M:3/4] x6 | x6 | %18
 Gc c2 DF |[M:9/16] x9/2 |] %20
V:4
 x6 | x6 | x5[K:treble] x | x6 |[M:9/16][K:bass] x9/2 |[M:3/8] x3 |[M:3/4] x6 | x6 | x6 | %9
[M:9/16] x9/2 |[M:3/8][K:treble] x3 |[M:3/4] z G, G,[F,B,F] [G,B,F][K:bass][G,B,E] | %12
 x4[K:treble] x2 | z G, G,[G,B,F] [G,B,F][G,B,F] |[M:7/16][K:bass] x7/2 |[M:3/8] x3 |[M:3/4] x6 | %17
 x6 | x6 |[M:9/16] x9/2 |] %20

